!! 00000] TT[00
!! NN
!!!OTL: Cha zi diao
!!!ARE: Asia, China, Fujian, Shengyong, Nordwesten von Fujian)
!! Ethnic Group: Han ?
!! MM
!!!SCT: C1290
!!!YEM: Copyright 1995, estate of Helmut Schaffrath.
**kern
*ICvox
*Ivox
!! Mixed meters:  2/4; 3/4
*M3/4
*k[]
*C:
{8a
16a
16cc
8a
16a
16cc
=1
8a
16a
16cc
4dd
=2
4dd
8dd
8a
4cc
=3
8a
8a
8cc
16cc
16dd
8a
8dd}
=4
{8a
8dd
8a
8a
4a
=5
2r
8r
=6
*M2/4
8a
8a
8cc
16a
16g
=7
2a}
==
!!!AGN: Shange, Zhuanqu
!! Verzierungsnoten und Glissandi.
!!!ONB: ESAC (Essen Associative Code) Database: CHINA
!!!AMT: irregular
!!!AIN: vox
!!!EED: Helmut Schaffrath
!!!EEV: 1.0
*-
!!!ONB: Strange 2n token in data
